X:17584
T:Tommy Bhetty's Waltz
M:3/4
L:1/8
S:Altan, The Red Crow
R:Waltz
K:G
|:D2|G3BdB|G3BdB|d2b3a|ga fg ef|
G3BdB|G3 BdB|D2F2A2|c2~B2A2|
G3BdB|G3BdB|d2b3a|ga fg ef|dg3Bc|d3cAF|G2B2BA|G3:|
|:gfg|a2f2d2|A2F2D2|C2b3a|ga fg ef|d3ed2|B3AB2|D2F2A2|c2~B2A2|
d2Bc dB|db3af|g2b3a|ga fg ef|dg3Bc|d3c AF|G2B2BA|G3:|
